X:75
T:Honeysuckle Rose
C:Thomas "Fats" Waller
N:TablEdited by Charles M Neff
L:1/8
Q:1/4=120
M:4/4
K:F
[cDG,]B DF [AEB,][A2E2B,2]z | [cDG,]B DF [AEB,][A2E2B,2]z | [cDG,]B DF [A2E2B,2] [A2_E2B,2] | 
[ADB,][ADB,] [ADB,][AEB,] zG FD | [AFA,]z [AFA,]z [FB,][FB,] [FB,]z | [A4F4A,4] AG FD | 
[AFA,]z [AFA,]z [FB,][FB,] [FB,]z | [F8A,8] | [cDG,]B DF [AEB,][A2E2B,2]z | [cDG,]B DF [AEB,][A2E2B,2]z | 
[cDG,]B DF [A2E2B,2] [A2_E2B,2] | [ADB,][ADB,] [ADB,][AEB,] zG FD | [AFA,]z [AFA,]z [FB,][FB,] [FB,]z | 
[A4F4A,4] AG FD | [AFA,]z [AFA,]z [FB,][FB,] [FB,]z | [F8A,8] | [A4F4A,4] [B4F4B,4] | 
[=B4F4=B,4] [c4F4A,4] | [B2D2] [B2D2] cB c2 | [_d2E2] [c2_E2] [B2D2] zA | [G4=B,4] [A4C4] | 
[B4_D4] [=B4=D4] | [c2E2] dc dc2z | [_e2_G2] [d2F2] [c3E3]B | [cDG,]B DF [AEB,][A2E2B,2]z | 
[cDG,]B DF [AEB,][A2E2B,2]z | [cDG,]B DF [A2E2B,2] [A2_E2B,2] | [ADB,][ADB,] [ADB,][AEB,] zG FD | 
[AFA,]z [AFA,]z [FB,][FB,] [FB,]z | [A4F4A,4] AG FD | [AFA,]z [AFA,]z [FB,][FB,] [FB,]z | 
[F8A,8] | 


